packages/synapse-interface/assets/icons/btc.svg

<svg fill="none" height="48" viewBox="0 0 48 48" width="48" xmlns="http://www.w3.org/2000/svg" xmlns:xlink="http://www.w3.org/1999/xlink"><clipPath id="a"><path d="m0 0h48v48h-48z"/></clipPath><g clip-path="url(#a)"><path d="m47.2819 29.8057c-3.2058 12.8573-16.2295 20.682-29.0898 17.4758-12.85484-3.2054-20.6804-16.2285-17.473255-29.0848 3.204325-12.85864 16.228155-20.68391 29.084355-17.478538 12.8593 3.205368 20.6844 16.229938 17.4783 29.087738l.0003-.0002z" fill="#f7931a"/><path d="m34.5841 20.5806c.4777-3.1939-1.9541-4.9107-5.2795-6.056l1.0788-4.3264-2.6339-.65621-1.0502 4.21251c-.6924-.1727-1.4035-.3354-2.1103-.4967l1.0578-4.2403-2.6323-.65623-1.0793 4.32493c-.573-.1304-1.1358-.2593-1.6819-.3952l.0031-.0136-3.6322-.9069-.7007 2.8129s1.9542.4478 1.913.4754c1.0666.2662 1.2594.9722 1.2274 1.5317l-2.9558 11.8523c-.1304.324-.4612.8103-1.2069.6256.0264.0383-1.9144-.4777-1.9144-.4777l-1.3077 3.0147 3.4276.8543c.6377.1599 1.2625.3272 1.8779.4845l-1.0899 4.376 2.6308.6562 1.0794-4.3295c.7187.1951 1.4162.375 2.099.5447l-1.0757 4.3091 2.634.6562 1.0898-4.3678c4.4914.85 7.8685.5073 9.29-3.5547 1.1454-3.2703-.057-5.1567-2.4199-6.3868 1.721-.3969 3.0173-1.5287 3.3629-3.8666zm-6.0178 8.4376c-.814 3.2704-6.3209 1.5025-8.1064 1.0592l1.4464-5.7974c1.7853.4456 7.5105 1.3276 6.66 4.7382zm.8145-8.485c-.7425 2.9748-5.326 1.4635-6.8128 1.0929l1.3113-5.258c1.4869.3706 6.2748 1.0623 5.5015 4.1651z" fill="#fff"/></g></svg>

<svg width="48" height="48" viewBox="0 0 48 48" fill="none" xmlns="http://www.w3.org/2000/svg">
<g clip-path="url(#clip0_1275_22900)">
<path d="M47.2819 29.8057C44.0761 42.663 31.0524 50.4877 18.1921 47.2815C5.33726 44.0761 -2.4883 31.053 0.718845 18.1967C3.92317 5.33806 16.947 -2.48721 29.8032 0.718162C42.6625 3.92353 50.4876 16.9481 47.2815 29.8059L47.2818 29.8057H47.2819Z" fill="#F7931A"/>
<path d="M34.5841 20.5806C35.0618 17.3867 32.63 15.6699 29.3046 14.5246L30.3834 10.1982L27.7495 9.54199L26.6993 13.7545C26.0069 13.5818 25.2958 13.4191 24.589 13.2578L25.6468 9.0175L23.0145 8.36127L21.9352 12.6862C21.3622 12.5558 20.7994 12.4269 20.2533 12.291L20.2564 12.2774L16.6242 11.3705L15.9235 14.1834C15.9235 14.1834 17.8777 14.6312 17.8365 14.6588C18.9031 14.925 19.0959 15.631 19.0639 16.1905L16.1081 28.0428C15.9777 28.3668 15.6469 28.8531 14.9012 28.6684C14.9276 28.7067 12.9868 28.1907 12.9868 28.1907L11.6791 31.2054L15.1067 32.0597C15.7444 32.2196 16.3692 32.3869 16.9846 32.5442L15.8947 36.9202L18.5255 37.5764L19.6049 33.2469C20.3236 33.442 21.0211 33.6219 21.7039 33.7916L20.6282 38.1007L23.2622 38.7569L24.352 34.3891C28.8434 35.2391 32.2205 34.8964 33.642 30.8344C34.7874 27.5641 33.585 25.6777 31.2221 24.4476C32.9431 24.0507 34.2394 22.9189 34.585 20.581L34.5841 20.5806ZM28.5663 29.0182C27.7523 32.2886 22.2454 30.5207 20.4599 30.0774L21.9063 24.28C23.6916 24.7256 29.4168 25.6076 28.5663 29.0182ZM29.3808 20.5332C28.6383 23.508 24.0548 21.9967 22.568 21.6261L23.8793 16.3681C25.3662 16.7387 30.1541 17.4304 29.3808 20.5332Z" fill="white"/>
</g>
<defs>
<clipPath id="clip0_1275_22900">
<rect width="48" height="48" fill="white"/>
</clipPath>
</defs>
</svg>
